X:1
T:Ung compaignon gallin
T:Pierre Passereau 
T:Source : Tiers livre contenant 21 chansons à 4, eslevées de plusieurs livres---Paris---P.Attaignant---1536. Editor : André Vierendeels (04/01/18).                                   (First print : 1534) Notes : Original clefs : G2, C2, C3, F3 Original note values have been halved Editorial accidentals above the staff Dotted brackets indicate black notes
T:Ung compaignon gallin
T:©
T:©
T:©
T:©
T:©
T:©
T:©
C:Pierre Passereau
C:
Z:©
%%score [ 1 2 [ 3 4 ] ]
L:1/8
Q:1/4=120
M:2/2
K:F
V:1 treble nm="Soprano" snm="S"
V:2 treble nm="Alto" snm="A"
V:3 treble-8 nm="Tenor 1" snm="T 1"
V:4 treble-8 nm="Tenor 2" snm="T 2"
V:1
 G2 GG BGBc | d4 z2 B2 | BB G2 d2 cB | A4 c2 cc | B2 B2 F2 A2- | AG G4 F2 | G8 | z8 | d2 dd cdcB | %9
w: Ung com- pai- gnon gal- lin gal-|lant ung|com- pai- gnon gal- lin gal-|lant et u- ne|fil- let- te io-|* * ly- *|e||[se] trou- vay en ung ce- lier|
 AABB A2 G2 | A2 d2 c2 B2 | c3 c B2 A2- | A2 G4 F2 | G2 G2 B2 c2 | A2 d2 dcBA | G2 c3 B AG | %16
w: plant, ung ce- lier plant sans|pen- ser nul- ne|vil- le- ny- *||e,- mais le gal-|lant de che _ _ _|re ly- * * *|
 F4 z4 | z2 B2 B2 B2 | A2 d2 c2 B2 | A4 z2 A2 | A2 B2 c2 A2 | A2 G2 A2 d2 | d2 c3 F B2- | %23
w: e,|di- soit à|la da- me: sus|sus, di-|soit à la da-|me: sus sus, à|la da- me sus|
 B2 A2 B2 d2 | ddcB AG B2 | A2 F2 FG A2 | F2 G3 E A2- | AG G4 F2 | G2 d2 ddcB | AG B2 A2 F2 | %30
w: _ sus, vo- tre|ton- neau ne rend que ly- e,|ré- tou- pez lay, ie|n'en veulx _ _|_ _ _ _|plus, vo- tre ton- neau ne|rend que ly- e, ré-|
 FG A2 F2 G2- | GE A3 G G2- | G2 F2 GBGB | AGFE Dddd | cBAG B2 A2- | AG G4 F2 | G8 |] %37
w: tou- pez lay ie n'en|_ veulx plus, ré- tou-|* pez le, ré- tou- pez|le, ie n'en veulx plus, ré- tou- pez|le, ré- tou- pez lay ie|_ _ n'en veulx|plus.|
V:2
 z4 G2 GG | FGFE D2 G2 | G2 G2 FFFD | FFFF CDEF | G2 G,2 z DFF | EDEE D4 | D2 G2 GGDG | %7
w: Ung com- pai-|gnon gal- lin gal- lant, ung|com- pai- gnon gal- lin gal-|lant et u- ne fil- let- te io-|ly- e, et u- ne|fil- let- te io- ly-|e, [se] trou- vay en ung|
 FE D2 z2 D2 | DD F3 FFD | DDFF F2 D2 | D2 F2 F2 D2 | G6 F2 |"^b""^b" E2 E2 D4 | D2 D4 E2 | %14
w: ce- lier plant, [se]|trou- vay en ung ce- lier|plant, ung ce- lier plant sans|pen- ser nul- le|vil- *|* le- ny-|e, mais la|
 F4 D2 G2- | GF ED C2 F2 | A3 A G2 F2- |"^b" F2 ED D4 | z4 F4 | F2 F2 E2 F2- |"^b" FE D4 C2 | %21
w: gal- lant _|_ _ _ _ _ de|che- re ly- *|* * * e|di-|soit à la da-|* * me sus|
 B,CDE F2 F2- | FG A2 F2 G2 | F4 D2 F2 | D2 E2 F4 | z2 D2 DDCB, | A,G, B,4 A,2 | z2 C2 D2 D2 | %28
w: sus _ _ _ _ _|_ _ _ _ _|* * vo-|stre ton- neau,|vo- stre ton- neau ne|rend que ly- e,|ré- tou- pez|
 B,3 C D2 E2 | F4 z2 D2 | DDCB, A,G, B,2- | B,2 A,2 z2 C2 | D2 D2 B,3 B, | C2 D4 G,2 | %34
w: lay, ie n'en veulx|plus, ré-|tou- pez lay, ie n'en _ veulx|_ plus, ré-|tou- pez lay, ie|n'en veulx plus,|
 z CCC B,2 E2- |"^b" E2 C2 D4 | D8 |] %37
w: ré- tou- pez lay, ie|_ n'n veulx|plus.|
V:3
 z4 G2 GG | BGBc d4 | G2 GG BBAG | A4 z2 e2 |"^b""^b""^b" e2 e2 d2 c2 | B2 c2 A4 | G4 G2 GG | %7
w: Ung com- pai-|gnon gal- lin gal- lant,|ung com- pai- gnon gal- lin gal-|lant et|u- ne fil- let-|te io- ly-|e, [se] trou- vay|
 BGBc d4 | z ABB ABAG | Addd c2 B2 | A4 z2 B2 | e3 e d3 c | B2 c2 A4 | G8 | z4 z2 G2 | B2 c2 A4 | %16
w: en ung cel- ier plant,|[se] trou- vay en ung ce- lier|plant, ung ce- lier plant _|_ sans|pen- ser nul- le|vil- le- ny-|e,|mais|le gal- lant|
 z2 A2 B2 c2 | dcBA B3 c | d4 A2 d2 | d2 d2 c2 d2 | c2 B2 A4 | z2 d2 d2 d2 |"^b" f3 e d2 e2 | %23
w: de che- re|ly- * * * * *|e, di- soit|à la da- me|sus sus, _|di- soit à|la da- me sus|
 c4 B4 | z4 d2 dd | cBAG B2 AA | c2 d2 BB c2 | d2 GG B2 A2 | G4 z4 | d2 dd cBAG | B2 AA c2 d2 | %31
w: sus, _|vo- stre ton-|neau ne rend que ly- e, ré-|tou- pez lay, ré- tou-|pez lay, ré- tou- pez|lay,|vo- stre ton- neau ne rend que|ly- e, ré- tou- pez|
 BB c2 d2 GG | B2 A2 G2 z2 | f2 dc B2 z2 | f2 fe d2 c2 | B2 AG A2 A2 | G8 |] %37
w: lay, ie n'en veulx plus, ré-|tou- pez lay,|ie n'en veulx plus,|ré- tou- pez lay, ie|n'en _ _ _ veulx|plus.|
V:4
 z8 | z4 G2 GG | BGBc dDFG | D2 F2 FF CD |"^b""^b" EFGA B2 F2 | G2 C2 D4 | G8 | z2 G2 GGBG | %8
w: |Ung com- pai-|gnon gal- lin gal- lant, gal- lin gal-|lant et u- ne fil- *|et- * * * * *|te io- ly-|e.|[se] trou- vay en ung|
 BcdD FDFG | D2 z B, FFGG | D2 D2 F2 G2 | CDEF G2 D2 |"^b" E2 C2 D4 | G4 z2 C2 | F2 D2 G4 | %15
w: ce- lier plant, en ung _ ce- lier|plant, en ung ce- lier plant|sans pen- ser nul-|le _ _ _ _ vil-|le- * ny-|e, mais|le gal- lant|
 z2 C2 F2 F2 | D2 F2 G2 A2 | BAGF G4 | D4 z2 D2 | DEFG A2 D2 | F2 B,2 F4 | G4 D2 B2 | %22
w: de che- re|ly- * * *||e, di-|soit _ _ _ à la|da- me sus|sus, _ di-|
 B2 A2 B2 _E2 |"^b" F2 F2 B,2 B,2 | B,2 C2 DB,DE | F4 B,2 z2 | z2 G2 GGFE |"^b" DC E2 D4 | %28
w: soit à la da-|me sus sus, vo-|stre ton- neau ne rend que|ly- e,|vo- stre ton- neau ne|rend que ly- e,|
 z2 B,2 B,2 C2 | DB, DE F4 | B,2 z2 z2 G2 | GGFE DC E2 | D4 z GGG | F2 F2 G2 B2 | FFFF G2 C2 | %35
w: ré- tou- pez|le, ie n'en _ veulx|plus, vos-|tre ton- neau ne rend que ly-|e, ré- tou- pez|lay, ie n'en veulx|plus, ré- tou- pez lay, ie|
"^b""^b" E2 E2 D4 | G8 |] %37
w: n'en _ veulx|plus.|

